24x24/actions/podcast-amarok.svg

<svg height="24" width="24" xmlns="http://www.w3.org/2000/svg"><path d="m11 3a4 4 0 0 0 -4 4h3v1h-3v3h3v1h-2.844c.445 1.724 1.98 3 3.844 3 1.863 0 3.4-1.276 3.844-3h-2.844v-1h3v-3h-3v-1h3a4 4 0 0 0 -4-4zm-5.906 9a5.968 5.968 0 0 0 4.906 4.906v.094l-1 2h4l-1-2v-.094a5.968 5.968 0 0 0 4.906-4.906h-1a5.017 5.017 0 0 1 -4.906 4 5.017 5.017 0 0 1 -4.906-4z" fill="#555e70" transform="translate(1 1)"/></svg>

<svg xmlns="http://www.w3.org/2000/svg" width="24" height="24"><path style="fill:currentColor;fill-opacity:1;stroke:none;color:#555e70" d="M11 3a4 4 0 0 0-4 4h3v1H7v3h3v1H7.156c.445 1.724 1.98 3 3.844 3 1.863 0 3.4-1.276 3.844-3H12v-1h3V8h-3V7h3a4 4 0 0 0-4-4zm-5.906 9A5.968 5.968 0 0 0 10 16.906V17l-1 2h4l-1-2v-.094A5.968 5.968 0 0 0 16.906 12h-1A5.017 5.017 0 0 1 11 16a5.017 5.017 0 0 1-4.906-4h-1z" transform="translate(1 1)"/></svg>
